icons/pipfile.svg

<svg xmlns="http://www.w3.org/2000/svg" style="isolation:isolate" viewBox="0 0 64 64"><path fill="#66bb6a" d="M38.329 3.129 32 0l-6.258 3.129c-9.475-7.07-20.231-1.144-17.209 8.604L0 16v32l32 16 32-16V16l-8.533-4.267c3.089-9.489-7.457-15.725-17.138-8.604m9.742 19.413-10.382-5.191h9.671c2.133 0 4.267-.782 5.831-2.275l4.907 2.488zM26.169 7.396c1.493 1.92 2.702 4.124 3.982 6.186l-8.178-4.124zm11.662 0 4.196 2.133-8.178 4.053c1.28-2.062 2.489-4.266 3.982-6.186m12.729 6.328c-.924.64-2.062.925-3.2.925h-9.742l7.395-3.698zm-31.573-2.773 7.324 3.698H16.64c-1.138 0-2.204-.356-3.2-.925zm-2.347 6.4h9.671l-10.382 5.191-10.027-4.978 4.907-2.488a8.6 8.6 0 0 0 5.831 2.275M32 30.507l-13.084-6.543 9.528-4.693-1.706 4.267 2.489.995L32 17.636l2.773 6.897 2.489-.995-1.706-4.267 9.528 4.765zM40.96 4.48c7.423-4.341 13.67-.162 12.089 6.044zm-5.547 1.707C34.204 7.893 33.138 9.742 32 11.52c-1.138-1.778-2.204-3.627-3.413-5.333L32 4.48zM10.88 10.596C9.383 3.282 16.605.521 22.969 4.551z" data-iconColor="Pipfile"/></svg>

<!--
  - The MIT License (MIT)
  -
  - Copyright (c) 2015-2024 Elior "Mallowigi" Boukhobza
  -
  - Permission is hereby granted, free of charge, to any person obtaining a copy
  - of this software and associated documentation files (the "Software"), to deal
  - in the Software without restriction, including without limitation the rights
  - to use, copy, modify, merge, publish, distribute, sublicense, and/or sell
  - copies of the Software, and to permit persons to whom the Software is
  - furnished to do so, subject to the following conditions:
  -
  - The above copyright notice and this permission notice shall be included in all
  - copies or substantial portions of the Software.
  -
  - THE SOFTWARE IS PROVIDED "AS IS", WITHOUT WARRANTY OF ANY KIND, EXPRESS OR
  - IMPLIED, INCLUDING BUT NOT LIMITED TO THE WARRANTIES OF MERCHANTABILITY,
  - FITNESS FOR A PARTICULAR PURPOSE AND NONINFRINGEMENT. IN NO EVENT SHALL THE
  - AUTHORS OR COPYRIGHT HOLDERS BE LIABLE FOR ANY CLAIM, DAMAGES OR OTHER
  - LIABILITY, WHETHER IN AN ACTION OF CONTRACT, TORT OR OTHERWISE, ARISING FROM,
  - OUT OF OR IN CONNECTION WITH THE SOFTWARE OR THE USE OR OTHER DEALINGS IN THE
  - SOFTWARE.
  -
  -->

<svg  xmlns="http://www.w3.org/2000/svg" style="isolation:isolate" viewBox="0 0 64 64" width="16px"
     height="16px">
  <g fill="#66BB6A" data-iconColor="Pipfile">
    <path
        d=" M 38.329 3.129 L 32 0 L 25.742 3.129 C 16.267 -3.941 5.511 1.985 8.533 11.733 L 0 16 L 0 48 L 32 64 L 64 48 L 64 16 L 55.467 11.733 C 58.556 2.244 48.01 -3.992 38.329 3.129 Z  M 48.071 22.542 L 37.689 17.351 L 47.36 17.351 C 49.493 17.351 51.627 16.569 53.191 15.076 L 58.098 17.564 L 48.071 22.542 Z  M 26.169 7.396 C 27.662 9.316 28.871 11.52 30.151 13.582 L 21.973 9.458 L 26.169 7.396 Z  M 37.831 7.396 L 42.027 9.529 L 33.849 13.582 C 35.129 11.52 36.338 9.316 37.831 7.396 Z  M 50.56 13.724 C 49.636 14.364 48.498 14.649 47.36 14.649 L 37.618 14.649 L 45.013 10.951 L 50.56 13.724 Z  M 18.987 10.951 L 26.311 14.649 L 16.64 14.649 C 15.502 14.649 14.436 14.293 13.44 13.724 L 18.987 10.951 Z  M 16.64 17.351 L 26.311 17.351 L 15.929 22.542 L 5.902 17.564 L 10.809 15.076 C 12.444 16.569 14.507 17.351 16.64 17.351 Z  M 32 30.507 L 18.916 23.964 L 28.444 19.271 L 26.738 23.538 L 29.227 24.533 L 32 17.636 L 34.773 24.533 L 37.262 23.538 L 35.556 19.271 L 45.084 24.036 L 32 30.507 Z  M 40.96 4.48 C 48.383 0.139 54.63 4.318 53.049 10.524 L 40.96 4.48 Z  M 35.413 6.187 C 34.204 7.893 33.138 9.742 32 11.52 C 30.862 9.742 29.796 7.893 28.587 6.187 L 32 4.48 L 35.413 6.187 Z  M 10.88 10.596 C 9.383 3.282 16.605 0.521 22.969 4.551 L 10.88 10.596 Z "/>
  </g>
</svg>
